X: 50
T:Sailor's Hornpipe
M:4/4
L:1/8
Q:180
R:March
K:D
d-c|"D".d2.D2.D2A-G|F-A d-c d-f e-d|"E".e2.E2.E2e-d|"A"c-e.A2A2.B-.c|
"G"d-c-B-A B-A-G-F|G-F-E-D "G"E-D-C-B,|"D"A,-D-C-E "A7"D-F-E-G|"D".F2.D2
.D2::
.A-.G|"D"F-A-d-A F-A-d-A|"G".B2.G2.G2.B-.A|"E"^G-B-e-B G-B-e-B|"A".c2.A2
.A2.B-.c|
"G"d-c-B-A B-A-G-F|G-F-E-D "A"E-D-C-B,|"D"A,-D-C-E "A7"D-F-E-G|"D".F2.D2
.D2:|
